svg/u1f326.svg

<svg viewBox="0 0 128 128" xmlns="http://www.w3.org/2000/svg">
  <path d="M38.29,29.14c-6.01,7.73-5.91,21.47,1.78,28.27c8.73,7.72,21.01,7.65,28.74,0.54 c9.26-8.52,8.73-22.71,0.54-30.74C61.11,19.13,46.4,18.71,38.29,29.14z" fill="#FCC11A"/>
  <path d="M47.95,26.49c-2.38-1.06-4.98,1.81-6.12,3.78c-1.13,1.96-2.19,5.81,0.23,6.8 c2.42,0.98,4.15-0.68,5.89-3.55C49.69,30.64,50.67,27.7,47.95,26.49z" fill="#FEE269"/>
  <path d="M54.14,15.71c-0.58,1.08-0.38,1.91,0.76,2.18c1.14,0.27,8.28,1.43,8.88,1.47 c0.87,0.05,1.2-0.6,1.09-1.36c-0.11-0.76-1.85-11.44-2.02-12.42c-0.16-0.98-1.2-1.96-2.18-0.65S54.58,14.89,54.14,15.71z" fill="#FFA722"/>
  <path d="M72.6,23.12c-1.12,0.35-1.09,1.03-0.49,1.91c0.6,0.87,4.74,7.19,5.12,7.62 c0.38,0.44,1.03,0.54,1.58-0.11s7.35-10.19,7.84-10.78c0.82-0.98,0.33-2.02-0.93-1.69C84.78,20.32,73.31,22.9,72.6,23.12z" fill="#FFA722"/>
  <path d="M30.12,52.09c0.76-1.25,1.74-0.93,2.45,0.27c0.48,0.82,4.57,6.32,4.96,6.92 c0.38,0.6,0.54,1.74-0.65,2.02c-1.2,0.27-10.95,2.83-12.47,3.1s-2.4-0.93-1.42-2.23C23.56,61.4,29.69,52.8,30.12,52.09z" fill="#FFA722"/>
  <path d="M28.06,42.61c1.39,0.62,2.05,0.4,2.34-0.6c0.38-1.31,1.52-7.3,1.58-8.66 c0.04-0.89-0.33-1.74-1.69-1.52s-11.16,1.58-12.42,2.02c-1.45,0.51-1.35,2.11-0.38,2.61C18.63,37.06,27.08,42.18,28.06,42.61z" fill="#FFA722"/>
  <path d="M44.99,19.74c0.78-0.63,0.54-1.52-0.16-2.02c-0.71-0.49-9.46-6.82-10.57-7.68 c-0.98-0.76-2.18-0.49-1.85,1.25c0.23,1.25,3.02,12.21,3.21,12.96c0.22,0.87,0.87,1.31,1.63,0.76 C38.02,24.48,44.18,20.39,44.99,19.74z" fill="#FFA722"/>
  <path d="M99.22,65.16c0,0,3.54-23.47-17.6-29.03C58.67,30.09,53.29,51.4,53.29,51.4s-6.68-1.82-12.85,3.14 c-4.83,3.88-5.66,10.72-5.66,10.72s-9.41-0.32-13.45,6.17c-3.84,6.17,0,10.22,0,10.22l55.54-2.23l34.19,0.2 c0,0,2.47-6.42-2.28-10.87C104.02,64.31,99.22,65.16,99.22,65.16z" fill="#E2EBEE"/>
  <path d="M61.29,67.49c0,0,4.25,4.25,15.38,3.54c11.13-0.71,16.99-4.65,18.31-5.26 c1.32-0.61,2.83-2.02,3.34-1.01c0.51,1.01-0.61,3.84-2.12,5.87c-1.52,2.02-2.37,3.25-2.63,4.15c-0.2,0.71,3.14,1.72,9.41,2.02 c5.36,0.26,8.74-0.82,8.74-0.82s0.15,3.37-1.16,6c-1.22,2.43-2.49,3.22-4.51,3.63c-1.04,0.21-20.67,0.2-37.56,0.6 c-16.89,0.4-38.95,1.11-42.69-0.1s-4.66-3.58-5.14-4.5c-0.84-1.58-1.02-4.05-1.02-4.05s4.14,2.08,10.01,1.27s9-3.84,9.81-4.15 c0.81-0.3,4.65,1.62,10.72,0.1C58.66,72.65,61.29,67.49,61.29,67.49z" fill="#B9CED3"/>
  <path d="M47.26,90.91c-1.32-0.48-7.05,3.63-9.11,9.11c-3.04,8.09,7.79,10.79,10.07,3 C49.09,100.06,49.08,91.57,47.26,90.91z" fill="#4FC2F7"/>
  <path d="M90.07,96.81c-1.17-0.52-5.82,3.02-7.93,5.99c-2.02,2.84-3.82,7.64,1.14,10.1 c5.41,2.67,7.87-3.14,8.1-7.36C91.59,101.72,91.1,97.27,90.07,96.81z" fill="#4FC2F7"/>
  <path d="M66.52,106.4c-1.47-0.35-7.11,4.23-9.13,8.5c-4.05,8.56,8.39,11.58,9.93,3.37 C68.3,113.06,67.72,106.68,66.52,106.4z" fill="#4FC2F7"/>
  <path d="M61.24,113.05c-1.17-0.47-3.45,2.4-3.2,4.95c0.26,2.55,2.36,2.78,3.36,1.37 C62.74,117.5,62.4,113.51,61.24,113.05z" fill="#AFE6F8"/>
  <path d="M41.68,97.56c-1.11-0.52-3.01,2.52-2.99,4.09c0.05,3.2,2.41,3.41,3.51,1.83 C43.3,101.91,43.25,98.3,41.68,97.56z" fill="#AFE6F8"/>
  <path d="M84.83,103.77c-1.32-0.63-3.59,2.28-3.42,4.39c0.3,3.64,3.19,3.42,4.16,1.43 S86.02,104.34,84.83,103.77z" fill="#AFE6F8"/>
</svg>

<svg viewBox="0 0 128 128" xmlns="http://www.w3.org/2000/svg">
  <defs/>
  <path d="M38.29,29.14 C32.28,36.87 32.38,50.61 40.07,57.41 C48.8,65.13 61.08,65.06 68.81,57.95 C78.07,49.43 77.54,35.24 69.35,27.21 C61.11,19.13 46.4,18.71 38.29,29.14 Z" fill="#FCC11A"/>
  <path d="M47.95,26.49 C45.57,25.43 42.97,28.3 41.83,30.27 C40.7,32.23 39.64,36.08 42.06,37.07 C44.48,38.05 46.21,36.39 47.95,33.52 C49.69,30.64 50.67,27.7 47.95,26.49 Z" fill="#FEE269"/>
  <path d="M54.14,15.71 C53.56,16.79 53.76,17.62 54.9,17.89 C56.04,18.16 63.18,19.32 63.78,19.36 C64.65,19.41 64.98,18.76 64.87,18 C64.76,17.24 63.02,6.56 62.85,5.58 C62.69,4.6 61.65,3.62 60.67,4.93 C59.69,6.24 54.58,14.89 54.14,15.71 Z" fill="#FFA722"/>
  <path d="M72.6,23.12 C71.48,23.47 71.51,24.15 72.11,25.03 C72.71,25.9 76.85,32.22 77.23,32.65 C77.61,33.09 78.26,33.19 78.81,32.54 C79.36,31.89 86.16,22.35 86.65,21.76 C87.47,20.78 86.98,19.74 85.72,20.07 C84.78,20.32 73.31,22.9 72.6,23.12 Z" fill="#FFA722"/>
  <path d="M30.12,52.09 C30.88,50.84 31.86,51.16 32.57,52.36 C33.05,53.18 37.14,58.68 37.53,59.28 C37.91,59.88 38.07,61.02 36.88,61.3 C35.68,61.57 25.93,64.13 24.41,64.4 C22.89,64.67 22.01,63.47 22.99,62.17 C23.56,61.4 29.69,52.8 30.12,52.09 Z" fill="#FFA722"/>
  <path d="M28.06,42.61 C29.45,43.23 30.11,43.01 30.4,42.01 C30.78,40.7 31.92,34.71 31.98,33.35 C32.02,32.46 31.65,31.61 30.29,31.83 C28.93,32.05 19.13,33.41 17.87,33.85 C16.42,34.36 16.52,35.96 17.49,36.46 C18.63,37.06 27.08,42.18 28.06,42.61 Z" fill="#FFA722"/>
  <path d="M44.99,19.74 C45.77,19.11 45.53,18.22 44.83,17.72 C44.12,17.23 35.37,10.9 34.26,10.04 C33.28,9.28 32.08,9.55 32.41,11.29 C32.64,12.54 35.43,23.5 35.62,24.25 C35.84,25.12 36.49,25.56 37.25,25.01 C38.02,24.48 44.18,20.39 44.99,19.74 Z" fill="#FFA722"/>
  <path d="M99.22,65.16 C99.22,65.16 102.76,41.69 81.62,36.13 C58.67,30.09 53.29,51.4 53.29,51.4 C53.29,51.4 46.61,49.58 40.44,54.54 C35.61,58.42 34.78,65.26 34.78,65.26 C34.78,65.26 25.37,64.94 21.33,71.43 C17.49,77.6 21.33,81.65 21.33,81.65 L76.87,79.42 L111.06,79.62 C111.06,79.62 113.53,73.2 108.78,68.75 C104.02,64.31 99.22,65.16 99.22,65.16 Z" fill="#E2EBEE"/>
  <path d="M61.29,67.49 C61.29,67.49 65.54,71.74 76.67,71.03 C87.8,70.32 93.66,66.38 94.98,65.77 C96.3,65.16 97.81,63.75 98.32,64.76 C98.83,65.77 97.71,68.6 96.2,70.63 C94.68,72.65 93.83,73.88 93.57,74.78 C93.37,75.49 96.71,76.5 102.98,76.8 C108.34,77.06 111.72,75.98 111.72,75.98 C111.72,75.98 111.87,79.35 110.56,81.98 C109.34,84.41 108.07,85.2 106.05,85.61 C105.01,85.82 85.38,85.81 68.49,86.21 C51.6,86.61 29.54,87.32 25.8,86.11 C22.06,84.9 21.14,82.53 20.66,81.61 C19.82,80.03 19.64,77.56 19.64,77.56 C19.64,77.56 23.78,79.64 29.65,78.83 C35.52,78.02 38.65,74.99 39.46,74.68 C40.27,74.38 44.11,76.3 50.18,74.78 C58.66,72.65 61.29,67.49 61.29,67.49 Z" fill="#B9CED3"/>
  <path d="M47.26,90.91 C45.94,90.43 40.21,94.54 38.15,100.02 C35.11,108.11 45.94,110.81 48.22,103.02 C49.09,100.06 49.08,91.57 47.26,90.91 Z" fill="#4FC2F7"/>
  <path d="M90.07,96.81 C88.9,96.29 84.25,99.83 82.14,102.8 C80.12,105.64 78.32,110.44 83.28,112.9 C88.69,115.57 91.15,109.76 91.38,105.54 C91.59,101.72 91.1,97.27 90.07,96.81 Z" fill="#4FC2F7"/>
  <path d="M66.52,106.4 C65.05,106.05 59.41,110.63 57.39,114.9 C53.34,123.46 65.78,126.48 67.32,118.27 C68.3,113.06 67.72,106.68 66.52,106.4 Z" fill="#4FC2F7"/>
  <path d="M61.24,113.05 C60.07,112.58 57.79,115.45 58.04,118 C58.3,120.55 60.4,120.78 61.4,119.37 C62.74,117.5 62.4,113.51 61.24,113.05 Z" fill="#AFE6F8"/>
  <path d="M41.68,97.56 C40.57,97.04 38.67,100.08 38.69,101.65 C38.74,104.85 41.1,105.06 42.2,103.48 C43.3,101.91 43.25,98.3 41.68,97.56 Z" fill="#AFE6F8"/>
  <path d="M84.83,103.77 C83.51,103.14 81.24,106.05 81.41,108.16 C81.71,111.8 84.6,111.58 85.57,109.59 C86.54,107.6 86.02,104.34 84.83,103.77 Z" fill="#AFE6F8"/>
</svg>
